X:936
T:Squirrel Heads And Gravy
S:Bennett's Session, Edinburgh
C:Chris Germain
Z:Nigel Gatherer
M:4/4
L:1/8
K:G
G2 G2 E2 D2 | G2 G2 E2 D2 | G2 G2 E2 G2 | A3 B  A2 A2 |
B2 B2 A2 G2 | GAGF  E2 GE | D2 DE G2 D2 | BG A2 G4   :|
d2 de dcBc  | d2 de d4    | d2 de dc B2 | A3 B  A2 Bc |
d2 de dc B2 | cBcd  e4    | d2 ef g2 d2 | BG A2 G4   :|
<end>
<start>
